!!!!SEGMENT: pl-cz--ii-123--005_kottritsch-franciszek--mittit-ad-virginem-super-bientium.krn
!!!cenid: 17xx:931
!!!COM: Kottritsch, Franciszek
!!!COM-rismid: pe30040598
!!!CDT: ~1727-1787
!!!CNT:
!!!OPR: Mittit ad virginem
!!!OTL: Super bientium
!!!OMV: 003
!!!PDT:
!!!AGN: Sacred
!!!SMS-siglum: PL-CZ
!!!SMS-shelfmark: II-123
!!!SMS-shelfwork: 002-003 M
!!!SMS-variant:
!!!SMS-altvar:
!!!NIFC-rismid: 300000621
!!!URL-scan: http://repozytorium.nifc.pl/skany/pl-cz-nut--ii-123
!!!ONB-nifc: UWAGA: części Mittit ad virginem: Mittit ad virginem, Zdrowaś bądź Maria, Super bientium, Qui nobis tribuat. Uwaga: numeracja części od 003. Rorate caeli to osobny utwór
!!!key: F
**kern	**fba	**kern	**kern	**kern	**text	**kern	**text	**kern	**text	**kern	**kern	**text	**kern	**kern
*	*	*group3	*group3	*group2	*	*group2	*	*group2	*	*group2	*group2	*	*group1	*group1
*part10	*part10	*part9	*part8	*part7	*part7	*part6	*part6	*part5	*part5	*part4	*part3	*part3	*part2	*part1
*staff10	*	*staff9	*staff8	*staff7	*staff7	*staff6	*staff6	*staff5	*staff5	*staff4	*staff3	*staff3	*staff2	*staff1
*I"Organo.	*	*I"Violino Secundo	*I"Violino Primo.	*I"Baſso.	*	*I"Tenore	*	*I"Alto.	*	*I"Canto Secundo	*I"Canto. Primo.	*	*I"Hoboa Secundo.	*I"Hoboa Primo.
*I'org	*	*I'vl 2	*I'vl 1	*I'B	*	*I'T	*	*I'A	*	*I'S 2	*I'S 1	*	*I'ob 2	*I'ob 1
*Iorgano	*	*Ivioln	*Ivioln	*Ibass	*	*Itenor	*	*Ialto	*	*Isoprn	*Isoprn	*	*Ioboe	*Ioboe
*ICklav	*	*ICstr	*ICstr	*ICvox	*	*ICvox	*	*ICvox	*	*ICvox	*ICvox	*	*ICww	*ICww
*IGcont	*	*	*	*IGcoro	*	*IGcoro	*	*IGcoro	*	*IGcoro	*IGcoro	*	*	*
*clefF4	*	*clefG2	*clefG2	*clefF4	*	*clefC4	*	*clefC3	*	*	*clefC1	*	*	*
*k[b-]	*	*k[b-]	*k[b-]	*k[b-]	*	*k[b-]	*	*k[b-]	*	*	*k[b-]	*	*	*
*d:	*	*d:	*d:	*d:	*	*d:	*	*d:	*	*	*d:	*	*	*
*M3/4	*	*M3/4	*M3/4	*M3/4	*	*M3/4	*	*M3/4	*	*	*M3/4	*	*	*
=1	=1	=1	=1	=1	=1	=1	=1	=1	=1	=1	=1	=1	=1	=1
!	!	!	!	!LO:TX:a:i:t=Tempore Gradualis&colon;	!	!	!	!	!	!LO:TX:t=P:problem:wyłącznie w części "Zdrowaś bądź Maria"	!	!	!LO:TX:t=P:problem:wyłącznie w części "Zdrowaś bądź Maria"	!LO:TX:t=P:problem:wyłącznie w części "Zdrowaś bądź Maria"
4F\	.	4ff\	4aa\	4F\	Su-	4c\	Su-	4a\	Su-	2.ryy	4ff\	Su-	2.ryy	2.ryy
4E\	6\	4cc#X\	4gg\	4E\	-per-	4c#X\	-per-	4g\	-per-	.	4cc#X\	-per-	.	.
4D\	.	4ff\	4aa\	4D\	-bi-	4d\	-bi-	4f\	-bi-	.	4a\	-bi-	.	.
=2	=2	=2	=2	=2	=2	=2	=2	=2	=2	=2	=2	=2	=2	=2
4.A\	#	4.cc#X\	4.aa\	4.A\	-en-	4.c#X\	-en-	4.e\	-en-	2.ryy	4.a\	-en-	2.ryy	2.ryy
8A\	.	8cc#\	8aa\	8A\	-ti-	8c#\	-ti-	8e\	-ti-	.	8a\	-ti-	.	.
4A\	.	4cc#\	4aa\	4A\	-um	4c#\	-um	4e\	-um	.	4a\	-um	.	.
=3	=3	=3	=3	=3	=3	=3	=3	=3	=3	=3	=3	=3	=3	=3
4d\	.	4ff\	4aa\	4d\	ter-	4d\	ter-	4f\	ter-	2.ryy	4a\	ter-	2.ryy	2.ryy
4B-\	.	4gg\	4bb-X\	4B-\	-ret	4d\	-ret	4b-\	-ret	.	4gg,<\	-ret	.	.
4c\	.	4ee\	4gg\	4c\	fa-	4e\	fa-	4g\	fa-	.	4ee\	fa-	.	.
=4	=4	=4	=4	=4	=4	=4	=4	=4	=4	=4	=4	=4	=4	=4
4.F\	.	4.ff\	4.aa\	4.F\	-ſti-	4.f\	-ſti-	4.a\	-ſti-	2.ryy	4.cc\	-ſti-	2.ryy	2.ryy
8F\	.	8ff\	8aa\	8F\	-gi-	8f\	-gi-	8a\	-gi-	.	8cc\	-gi-	.	.
4F\	.	4ff\	4aa\	4F\	-a	4f\	-a,	4a\	-a,	.	4cc\	-a,	.	.
=5	=5	=5	=5	=5	=5	=5	=5	=5	=5	=5	=5	=5	=5	=5
4c\	.	4ee\	4gg\	4c\	Col-	4e\	Col-	4g\	Col-	2.ryy	4cc\	Col-	2.ryy	2.ryy
4c#X\	5	4ee\	8gg\L	4c#X\	-la	4e\	-la	4g\	-la	.	4ee\	-la	.	.
.	.	.	8ee\	.	.	.	.	.	.	.	.	.	.	.
4A\	.	4ee\	8aa\	4A\	Su-	4c#X\	su-	4a\	su-	.	4ee\	su-	.	.
.	.	.	8gg\J	.	.	.	.	.	.	.	.	.	.	.
!	!	!	!	!LO:LB:g=original	!	!	!	!	!	!	!	!	!	!
=6	=6	=6	=6	=6	=6	=6	=6	=6	=6	=6	=6	=6	=6	=6
4.d\	-	4.dd\	4.ff\	4.d\	-bli-	4.d\	-bli-	4.f\	-bli-	2.ryy	4.a\	-bli-	2.ryy	2.ryy
8D/	.	8a/	8ff\	8d\	-mi-	8d\	-mi-	8f\	-mi-	.	8a\	-mi-	.	.
4D/	.	4a/	4ff\	4d\	-um	4d\	-um	4f\	-um	.	4a\	-um	.	.
=7	=7	=7	=7	=7	=7	=7	=7	=7	=7	=7	=7	=7	=7	=7
4d\	.	4dd\	8ff\L	4d\	cal-	4f\	cal-	4a\	cal-	2.ryy	4dd\	cal-	2.ryy	2.ryy
.	.	.	8aa\J	.	.	.	.	.	.	.	.	.	.	.
4cn\	6	4ee\	4aa\	4cn\	-cet	4e\	-cet	4a\	-cet	.	4ee\	-cet	.	.
4B-\	6	4dd\	4gg\	4B-\	vi	4d\	vi	4g\	vi	.	4gg\	vi	.	.
!LO:LB:g=original	!	!	!	!	!	!LO:LB:g=original	!	!LO:LB:g=original	!	!	!	!	!	!
=8	=8	=8	=8	=8	=8	=8	=8	=8	=8	=8	=8	=8	=8	=8
4.A\	#	4.cc#X\	4.aa\	4.A\	pro-	4.c#X\	pro-	4.a\	pro-	2.ryy	4.ee\	pro-	2.ryy	2.ryy
8A\	.	8cc#\	8aa\	8A\	-pri-	8c#\	-pri-	8a\	-pri-	.	8ee\	-pri-	.	.
4A\	.	4cc#\	4aa\	4A\	-a	4c#\	-a	4a\	-a	.	4ee\	-(am)	.	.
=9	=9	=9	=9	=9	=9	=9	=9	=9	=9	=9	=9	=9	=9	=9
*	*	*	*	*	*	*2\right	*	*	*	*	*	*	*	*
8F\L	.	4ccn\	8aa\L	8F\L	po-	[<2.cn\	po-	8a\L	po-	2.ryy	4ff\	po-	2.ryy	2.ryy
16E\L	.	.	16gg\L	16E\L	.	.	.	16g\L	.	.	.	.	.	.
16D\JJ	.	.	16ff\JJ	16D\JJ	.	.	.	16f\JJ	.	.	.	.	.	.
8E\L	.	4cc\	8gg\L	8E\L	.	.	.	8g\L	.	.	8cc\	-tens	.	.
!	!	!	!	!	!	!	!	!	!	!	!LO:LB:g=original	!	!	!
8C\	.	.	8ee\	8C\	.	.	.	8e\	.	.	8gg\L	po-	.	.
8D\	.	4b-X\	8ff\	8D\	.	.	.	8f\	.	.	(8ff\	.	.	.
8E\J	.	.	8gg\J	8E\J	.	.	.	8g\J	.	.	8ee\J)	.	.	.
!	!	!	!LO:LB:g=original	!	!	!	!	!	!	!	!	!	!	!
=10	=10	=10	=10	=10	=10	=10	=10	=10	=10	=10	=10	=10	=10	=10
4F\	.	4a/	4aa\	4F\	.	4c\_	.	4a\	.	2.ryy	4cc\	.	2.ryy	2.ryy
!	!	!	!	!LO:SIC:v:l:s=-tens	!	!	!	!	!	!	!	!	!	!
4AA/	6	4ff\	4aa\	4A\	-tes	4c\]	-tens	4f,<\	-tens	.	4ff,<\	-tens	.	.
4BB-/	.	4ff\	4gg\	4B-\	in	4d\	in	4f\	in	.	4ee\	in	.	.
=11	=11	=11	=11	=11	=11	=11	=11	=11	=11	=11	=11	=11	=11	=11
*	*	*2\right	*2\right	*2\right	*	*	*	*2\right	*	*	*2\right	*	*	*
2C/	4	2ff\	2gg\	2c\	prae-	2G/	prae-	2f\	praë-	2.ryy	2cc\	praë-	2.ryy	2.ryy
4CC/	3	4ee\	4gg\	4C/	-li-	4G/	-li-	4e\	-li-	.	4cc\	-li-	.	.
=12	=12	=12	=12	=12	=12	=12	=12	=12	=12	=12	=12	=12	=12	=12
!LO:TX:b:i:t=Zdrowas Da cap	!	!LO:TX:b:i:t=Zdrowas będ mar\nDa Cap	!LO:TX:b:i:t=Zdrowas Bąd maria Dacapo	!LO:TX:b:i:t=Zdrowas DaCap	!	!LO:TX:b:i:t=Versus Cantabitur	!	!LO:TX:b:i:t=Zdrowas Da capo\nVolti cito	!	!	!LO:TX:b:i:t=Zdrowas Da capo	!	!	!
2.FF/	.	2.ff\	2.ff\	2.F\	-o	2.A/	-o	2.f\	-o:	2.ryy	2.cc\	-o	2.ryy	2.ryy
==	==	==	==	==	==	==	==	==	==	==	==	==	==	==
*-	*-	*-	*-	*-	*-	*-	*-	*-	*-	*-	*-	*-	*-	*-
!!!system-decoration: [(g1)][(g2)][(g3)]<s10>
!!!RDF**kern: < = below
!!!ENC: Anastazja Marusiak
!!!END: 2020-08-13
!!!AIN: 1 alto 1 bass 2 oboe 1 organo 2 soprn 1 tenor 2 violn
!!!ENC: Andrzej Kubiczek
!!!END: 2022-02-05
